X:1
T:Title
%%score { ( 1 4 ) | ( 2 3 ) }
L:1/8
Q:1/4=108
M:4/4
K:A
V:1 treble nm="Grand Piano"
V:4 treble 
V:2 bass 
V:3 bass 
V:1
 [CE]2 [EA]>B c3 [EA] | B2 A>F [CE]4 | B2 B>c ddcB | [EA]2 [Ec]2 [EB]4 | [CE]2 [EA]>B c2 [EA][EA] | %5
w: Chas.~E.~Pollock * * * *|||||
 B2 A>F [A,CE]4 | A2 A>c e3 [Fd] | [Ec]2 [DB]2 [CA]4 | e6 z2 | e6 z2 | e6 z2 | e6 z2 | %12
w: |||||||
 c2 c>c c2 B2 | [EA]2 [Ec]>[Ec] [EB]4 | [CE]2 [EA]>B c2 [EA][EA] | B2 A>F [A,CE]4 | %16
w: ||||
 A2 A>c e3 [Fd] |[M:8/4] [Ec]2 [DB]2 [CA]4 z8 |] %18
w: ||
V:2
 [A,,A,]2 [C,A,]>[E,G,E] [A,E]3 [C,A,] | [D,F,D]2 [D,F,D]>[D,A,D] [A,,A,]4 | z4 z2 E2 | %3
 [C,A,]2 [A,,A,]2 [E,G,]4 | [A,,A,]2 [C,A,]>[E,G,E] [A,E]2 [C,A,][C,A,] | z2 [D,D]2 z4 | %6
 [A,CE]2 [A,CE]>[A,E] [A,CE]3 [D,A,] | [E,A,]2 [E,G,]2 [A,,A,]4 | [A,,CA]2 [C,C]>[E,C] [A,C]2 z2 | %9
 [E,B,]2 [E,B,]>[E,D] [A,C]2 z2 | [A,,CA]2 [C,C]>[E,C] [A,C]2 z2 | %11
 [E,B,]2 [E,B,]>[E,D][K:treble] [A,C]2 [A,CA][A,CA] | [A,E]2 [A,E]>[K:bass][A,E] [A,E]2 [E,G,E]2 | %13
 [C,A,]2 [A,,A,]>[A,,A,] [E,G,]4 | [A,,A,]2 [C,A,]>[E,G,E] [A,E]2 [C,A,][C,A,] | z2 [D,D]2 z4 | %16
 [A,CE]2 [A,CE]>[A,E] [A,CE]3 [D,A,] |[M:8/4] [E,A,]2 [E,G,]2 [A,,A,]4 z8 |] %18
V:3
 x8 | x8 | [E,G,E]2 [E,G,E]>[E,A,E] [E,B,E][E,B,E][E,A,][D,G,] | x8 | x8 | [D,F,D]2 F,>A, A,,4 | %6
 x8 | x8 | x8 | x8 | x8 | x4[K:treble] x4 | x7/2[K:bass] x9/2 | x8 | x8 | [D,F,D]2 F,>A, A,,4 | %16
 x8 |[M:8/4] x16 |] %18
V:4
 x8 | x8 | x8 | x8 | x8 | x8 | x8 | x8 | z2 A>A A2 c>A | G2 G>B A2 (3EAc | z2 A>A A2 c>A | %11
 G2 G>B A2 ee | x8 | x8 | x8 | x8 | x8 |[M:8/4] x16 |] %18

